X: 18721
T: Ian's Return To Ireland
R: jig
M: 6/8
K: Dmajor
|:A|dfa afe|dAF DFA|BAB GBd|cec ABc|
dfa afe|dAF DFA|BAB GBd|cBc d2:|
|:g|fef Adf|baf Aaf|gfg efd|ceB A2g|
fef Adf|baf Aaf|gfg edc|Adc d2:|

